images/logo7.svg

<?xml version="1.0" encoding="UTF-8" standalone="no"?>
<svg width="150px" height="60px" viewBox="0 0 150 60" version="1.1" xmlns="http://www.w3.org/2000/svg" xmlns:xlink="http://www.w3.org/1999/xlink" xmlns:sketch="http://www.bohemiancoding.com/sketch/ns">
    <!-- Generator: Sketch 3.3.3 (12081) - http://www.bohemiancoding.com/sketch -->
    <title>logo7</title>
    <desc>Created with Sketch.</desc>
    <defs></defs>
    <g id="Page-1" stroke="none" stroke-width="1" fill="none" fill-rule="evenodd" sketch:type="MSPage">
        <g id="logo7" sketch:type="MSArtboardGroup">
            <g id="Rectangle-path-+-Shape" sketch:type="MSLayerGroup" transform="translate(50.000000, 5.000000)">
                <rect id="Rectangle-path" stroke="#FFFFFF" stroke-width="2" sketch:type="MSShapeGroup" x="0.151696521" y="0.845225486" width="49.696607" height="49.612017"></rect>
                <path d="M33.518131,20.5799598 L33.518131,30.861951 L31.0645763,30.861951 L31.0645763,20.5799598 L29.2851065,20.5799598 L29.2851065,18.7496732 L35.2636746,18.7496732 L35.2636746,20.5799598 L33.518131,20.5799598 L33.518131,20.5799598 Z M27.0348441,4.96851329 L29.4883988,4.96851329 L29.4883988,15.3985468 L31.9009371,15.3985468 L31.9009371,17.0808573 L27.0348441,17.0808573 L27.0348441,4.96851329 L27.0348441,4.96851329 Z M28.4697508,18.7431906 L28.4697508,30.861951 L26.7711208,30.861951 L24.1154004,24.1393904 L24.1154004,30.861951 L22.0058788,30.861951 L22.0058788,18.7431906 L23.7713674,18.7431906 L26.4341116,25.0814234 L26.4341116,18.7431906 L28.4697508,18.7431906 L28.4697508,18.7431906 Z M21.3857314,4.96851329 L23.839286,4.96851329 L23.839286,15.3985468 L26.2518907,15.3985468 L26.2518907,17.0808573 L21.3857314,17.0808573 L21.3857314,4.96851329 L21.3857314,4.96851329 Z M17.6854546,14.4904485 L16.1011268,14.4904485 L15.6293403,17.0808573 L13.1957306,17.0808573 L15.8180549,4.96851329 L17.9885376,4.96851329 L20.6038381,17.0808573 L18.1837459,17.0808573 L17.6854546,14.4904485 L17.6854546,14.4904485 Z M16.910055,8.48812208 L16.2694326,12.9831031 L17.5237087,12.9831031 L16.910055,8.48812208 L16.910055,8.48812208 Z M9.56933606,17.0808573 L8.55121824,9.15398149 L7.55364169,17.0808573 L5.45757133,17.0808573 L3.77895247,4.96851329 L5.86905923,4.96851329 L6.62398382,12.9895858 L7.66145019,4.96851329 L9.4614613,4.96851329 L10.4795791,12.9422228 L11.2678998,4.96851329 L13.3645003,4.96851329 L11.6658703,17.0808573 L9.56933606,17.0808573 L9.56933606,17.0808573 Z M6.44169667,41.352842 C6.45084085,41.5412354 6.4740326,41.7463645 6.51233211,41.9681633 C6.55063163,42.1904913 6.60238237,42.3718728 6.66765058,42.5134325 C6.73232243,42.654529 6.82455933,42.7734656 6.94376493,42.8698452 C7.06290426,42.966754 7.20311495,43.0146461 7.36486084,43.0146461 C7.85023104,43.0146461 8.092883,42.7051333 8.092883,42.0860415 C8.092883,41.238139 7.61453659,40.3946024 6.65737994,39.5558948 L5.89596166,38.9099463 C5.6533097,38.7080585 5.45975798,38.5395761 5.31577034,38.4049621 C5.1723128,38.2704143 5.00248293,38.0889666 4.80727466,37.860156 C4.61153629,37.6314115 4.45893458,37.4101419 4.34887316,37.1975379 C4.2383479,36.9843385 4.14399061,36.7275467 4.06580129,36.4271625 C3.98708186,36.1267783 3.94772215,35.8080707 3.94772215,35.4711059 C3.94772215,34.4891848 4.25994936,33.7118638 4.8844038,33.1396057 C5.50932206,32.5679429 6.3381952,32.2820454 7.37188463,32.2820454 C8.23037695,32.2820454 8.9605195,32.5867294 9.56284237,33.1972218 C10.1646352,33.8071188 10.4655315,34.5430304 10.4655315,35.4043612 L10.4590379,35.491546 L10.4590379,35.6934339 L7.92464342,36.043364 C7.92464342,35.9943473 7.92782401,35.9168202 7.93484779,35.811312 C7.94134148,35.7058038 7.94511842,35.6196773 7.94511842,35.5518742 C7.94511842,35.3903375 7.9337876,35.2358788 7.91112595,35.0878365 C7.88846429,34.9397942 7.85129123,34.791752 7.80007059,34.6437097 C7.74831986,34.4956675 7.66847398,34.3777893 7.56059921,34.2905383 C7.4527907,34.2028243 7.32225428,34.1592318 7.16965257,34.1592318 C6.90003191,34.1592318 6.69786611,34.2647401 6.56302265,34.4752273 C6.42824546,34.6862438 6.36079059,34.9354945 6.36079059,35.2223843 C6.36079059,35.473818 6.40015031,35.7090451 6.47893599,35.928661 C6.55712532,36.1488722 6.67626466,36.3539352 6.83589016,36.5445115 C6.99551566,36.7350878 7.14275014,36.8933832 7.27752734,37.0193316 C7.4123708,37.1447507 7.5919412,37.2981511 7.81676865,37.480128 C8.04166237,37.6615095 8.20069151,37.7955942 8.29564516,37.8806623 C8.64126849,38.1853463 8.93355081,38.4717068 9.17136564,38.7382226 C9.40971056,39.0052014 9.63453801,39.3071732 9.84538415,39.6431458 C10.0567604,39.9801106 10.2153257,40.3429398 10.3210138,40.7337502 C10.4261718,41.1235022 10.4795791,41.5455351 10.4795791,41.9988566 C10.4795791,42.8461637 10.175966,43.5405997 9.56933606,44.0810399 C8.96263989,44.6215463 8.22553981,44.8917664 7.35843341,44.8917664 C6.79653044,44.8917664 6.29770903,44.7884411 5.86203545,44.5827828 C5.4262956,44.376066 5.07417857,44.096122 4.80727466,43.741363 C4.53977439,43.3871332 4.33436175,42.9947352 4.19037411,42.5640367 C4.04638648,42.1334044 3.96336001,41.6715496 3.94069836,41.1773478 L6.42824546,40.6998156 C6.42824546,40.9469496 6.43255249,41.1644486 6.44169667,41.352842 L6.44169667,41.352842 Z M14.7120735,18.7496732 L17.327374,30.861951 L14.9072817,30.861951 L14.4089904,28.2715423 L12.8247289,28.2715423 L12.3528762,30.861951 L9.91926644,30.861951 L12.5415907,18.7496732 L14.7120735,18.7496732 L14.7120735,18.7496732 Z M14.2472445,26.764263 L13.6335908,22.2692159 L12.9929684,26.764263 L14.2472445,26.764263 L14.2472445,26.764263 Z M4.35914379,30.861951 L4.35914379,18.7496732 L7.29097855,18.7496732 C8.34686579,18.7496732 9.1152416,19.0435748 9.59630476,19.6314441 C10.0773016,20.2192473 10.317767,21.0687373 10.317767,22.1815018 C10.317767,22.7289539 10.2644259,23.2043032 10.1592679,23.6080127 C10.0535798,24.0117883 9.90634532,24.3449826 9.71763074,24.6071325 C9.52884989,24.8698778 9.28619793,25.080365 8.98960858,25.2397188 C8.69301923,25.3990065 8.37164784,25.5109973 8.0260245,25.5761545 C7.67980481,25.6413116 7.27971399,25.6763046 6.82561952,25.6806043 L6.82561952,30.861951 L4.35914379,30.861951 L4.35914379,30.861951 Z M6.83264331,23.9509309 C6.96317973,23.9509309 7.07854212,23.9433899 7.1799232,23.9277787 C7.28077418,23.9121674 7.36976424,23.8939102 7.44576692,23.8739331 C7.52236595,23.8534929 7.58975455,23.8163831 7.64852907,23.7625376 C7.7067735,23.708692 7.75474729,23.6618582 7.79304681,23.6215071 C7.83134633,23.5810899 7.86421235,23.5148744 7.89118104,23.4228606 C7.91814973,23.3307807 7.93809464,23.2559658 7.95161211,23.1972913 C7.96506333,23.139146 7.97533396,23.0454785 7.98176139,22.9152305 C7.98878518,22.7849162 7.99203202,22.6804664 7.99203202,22.601881 L7.99203202,22.2352812 L7.99203202,22.1346681 C7.99203202,21.9591738 7.99097183,21.827272 7.98878518,21.737375 C7.98606843,21.6480073 7.97851454,21.5333043 7.96506333,21.3939276 C7.95161211,21.2550139 7.93001066,21.1505641 7.90092158,21.0811073 C7.87176623,21.0117166 7.82915967,20.9320066 7.7731019,20.8426388 C7.71644777,20.7527419 7.64852907,20.6876509 7.567623,20.6472336 C7.48678318,20.6068825 7.38427565,20.5713603 7.26082928,20.5396086 C7.13678655,20.5083861 6.99445546,20.4927749 6.83264331,20.4927749 L6.83264331,23.9509309 L6.83264331,23.9509309 Z M13.9107654,37.4967976 L15.6697602,37.4967976 L15.6697602,32.530767 L18.1368323,32.530767 L18.1368323,44.6430448 L15.6697602,44.6430448 L15.6697602,39.2393701 L13.9107654,39.2393701 L13.9107654,44.6430448 L11.4572108,44.6430448 L11.4572108,32.530767 L13.9107654,32.530767 L13.9107654,37.4967976 L13.9107654,37.4967976 Z M18.1092673,18.7496732 L20.5628219,18.7496732 L20.5628219,30.861951 L18.1092673,30.861951 L18.1092673,18.7496732 L18.1092673,18.7496732 Z M22.9694629,32.2950107 C25.3378707,32.2950107 26.5215113,33.7264166 26.5215113,36.5886331 L26.5215113,40.5992024 C26.5215113,41.0836803 26.4858623,41.5310484 26.4136366,41.9412405 C26.3419409,42.3519619 26.2194885,42.7411847 26.0464118,43.1088428 C25.873335,43.4770963 25.6532785,43.7893212 25.3858445,44.0477006 C25.1183442,44.3055508 24.7802747,44.508497 24.3715036,44.6565393 C23.9627987,44.8045816 23.495253,44.8788673 22.9694629,44.8788673 C22.4480461,44.8788673 21.9832172,44.8056399 21.574446,44.6597806 C21.165211,44.5138551 20.8281355,44.3168624 20.5628219,44.0676116 C20.2981046,43.81889 20.0786444,43.5136769 19.9060315,43.1524352 C19.7329548,42.7912598 19.6094422,42.4068659 19.5350298,41.9988566 C19.4611475,41.5907812 19.4239744,41.1439423 19.4239744,40.6594645 L19.4239744,36.5886331 C19.4239744,33.7264166 20.6060248,32.2950107 22.9694629,32.2950107 L22.9694629,32.2950107 Z M21.8775291,41.2112824 C21.8775291,42.4003832 22.241507,42.9947352 22.9694629,42.9947352 C23.7017921,42.9947352 24.0679567,42.4003832 24.0679567,41.2112824 L24.0679567,35.9760239 C24.0679567,34.7830864 23.7017921,34.1860885 22.9694629,34.1860885 C22.7494726,34.1860885 22.5628784,34.2409925 22.4102767,34.3508665 C22.2571449,34.4612037 22.1449631,34.6108335 22.0727373,34.801939 C22.0010417,34.9925153 21.9503511,35.1809087 21.9211958,35.3671852 C21.8921067,35.5529326 21.8775291,35.756408 21.8775291,35.9760239 L21.8775291,41.2112824 L21.8775291,41.2112824 Z M33.0463445,33.4125379 C33.5273414,34.0004072 33.7678067,34.8498973 33.7678067,35.9625956 C33.7678067,36.5100477 33.7144657,36.9853969 33.6093077,37.3891726 C33.5036195,37.7928821 33.3563851,38.1261426 33.1676705,38.3882925 C32.9788896,38.6509716 32.7362377,38.8614588 32.4396483,39.0208126 C32.143059,39.1801664 31.8216876,39.2921573 31.4760642,39.3572482 C31.1298446,39.4224054 30.7297537,39.4573984 30.2756593,39.4616981 L30.2756593,44.6430448 L27.8091835,44.6430448 L27.8091835,32.530767 L30.7410846,32.530767 C31.7969055,32.530767 32.5653476,32.8246686 33.0463445,33.4125379 L33.0463445,33.4125379 Z M30.2826831,34.2738687 L30.2826831,37.7320909 C30.4132195,37.7320909 30.5285819,37.7245498 30.6299629,37.7089386 C30.7308139,37.6933273 30.819804,37.675004 30.8958067,37.655093 C30.9724057,37.6346529 31.0397943,37.5974769 31.0985688,37.5436313 C31.1568132,37.4897858 31.204787,37.442952 31.2430866,37.4026009 C31.2813861,37.3622498 31.3142521,37.2960343 31.3412208,37.2039544 C31.3681895,37.1119407 31.3881344,37.0370596 31.4016519,36.9783851 C31.4151031,36.9202398 31.4253737,36.8265723 31.4318011,36.6963242 C31.4388249,36.5660762 31.4420718,36.4616263 31.4420718,36.3830409 L31.4420718,36.0164412 L31.4420718,35.9157618 C31.4420718,35.7402676 31.4410116,35.6083658 31.4388249,35.5184688 C31.4361744,35.429101 31.4286206,35.3144642 31.4151031,35.1750214 C31.4016519,35.0361077 31.3800504,34.931724 31.3509613,34.8622672 C31.321806,34.7928104 31.2791994,34.7131666 31.2231416,34.6237988 C31.1665538,34.5339018 31.0985688,34.4687447 31.0176627,34.4283936 C30.9368229,34.3879763 30.8343154,34.3524541 30.710869,34.3207024 C30.5868263,34.2894799 30.4444952,34.2738687 30.2826831,34.2738687 L30.2826831,34.2738687 Z" id="Shape" fill="#FFFFFF" sketch:type="MSShapeGroup"></path>
            </g>
        </g>
    </g>
</svg>

<svg width="150" height="60" xmlns="http://www.w3.org/2000/svg"><g id="Page-1" stroke="none" stroke-width="1" fill="none" fill-rule="evenodd"><g id="logo7"><g id="Rectangle-path-+-Shape" transform="translate(50 5)"><path id="Rectangle-path" stroke="#FFF" stroke-width="2" d="M.152.845h49.697v49.612H.152z"/><path d="M33.518 20.58v10.282h-2.453V20.58h-1.78v-1.83h5.979v1.83h-1.746zM27.035 4.969h2.453v10.43h2.413v1.682h-4.866V4.969zm1.435 13.774v12.119h-1.7l-2.656-6.723v6.723h-2.11V18.743h1.766l2.663 6.338v-6.338h2.036zM21.386 4.97h2.453V15.4h2.413v1.682h-4.866V4.969zm-3.7 9.521H16.1l-.472 2.59h-2.433L15.818 4.97h2.17l2.616 12.112h-2.42l-.499-2.59zm-.776-6.002l-.64 4.495h1.254l-.614-4.495zm-7.34 8.593L8.55 9.154l-.997 7.927H5.458L3.779 4.969h2.09l.755 8.02 1.037-8.02h1.8l1.019 7.973.788-7.973h2.097l-1.7 12.112H9.57zM6.441 41.353c.009.188.032.393.07.615.039.222.09.404.156.545.064.142.157.26.276.357.119.097.26.145.42.145.486 0 .729-.31.729-.929 0-.848-.478-1.691-1.436-2.53l-.761-.646a13.87 13.87 0 01-.58-.505 6.918 6.918 0 01-.509-.545 3.531 3.531 0 01-.458-.662 3.712 3.712 0 01-.283-.77 3.757 3.757 0 01-.118-.957c0-.982.312-1.76.936-2.331.625-.572 1.454-.858 2.488-.858a2.96 2.96 0 012.19.915c.603.61.904 1.346.904 2.207l-.007.088v.201l-2.534.35c0-.049.003-.126.01-.232a3.063 3.063 0 00-.024-.723 2.526 2.526 0 00-.11-.444.768.768 0 00-.24-.353.6.6 0 00-.391-.132c-.27 0-.472.106-.607.316-.135.211-.202.46-.202.747a1.995 1.995 0 00.475 1.322c.16.191.307.35.442.475.134.126.314.28.539.461.225.182.384.316.479.4.345.305.638.592.875.858.239.267.464.57.674.905.212.337.37.7.476 1.09.105.39.159.813.159 1.266 0 .847-.304 1.542-.91 2.082-.607.54-1.344.81-2.212.81-.561 0-1.06-.103-1.496-.308a2.786 2.786 0 01-1.055-.842 4.091 4.091 0 01-.617-1.177 5.086 5.086 0 01-.25-1.387l2.488-.477c0 .247.005.464.014.653zm8.27-22.603l2.615 12.112h-2.42l-.498-2.59h-1.584l-.472 2.59H9.919l2.623-12.112h2.17zm-.465 8.014l-.613-4.495-.641 4.495h1.254zM4.36 30.862V18.75h2.932c1.056 0 1.824.294 2.305.881.481.588.722 1.438.722 2.55a5.7 5.7 0 01-.159 1.427 3.01 3.01 0 01-.441 1 2.112 2.112 0 01-.728.632c-.297.159-.618.271-.964.336s-.746.1-1.2.105v5.181H4.359zm2.474-6.911a2.3 2.3 0 00.613-.077.478.478 0 00.203-.111c.058-.054.106-.101.144-.141a.492.492 0 00.098-.2 3.38 3.38 0 00.06-.225 1.77 1.77 0 00.03-.282c.008-.13.011-.235.011-.313v-.467c0-.176-.001-.308-.003-.398a5.375 5.375 0 00-.024-.343 1.14 1.14 0 00-.064-.313 1.7 1.7 0 00-.128-.238.519.519 0 00-.205-.196 1.578 1.578 0 00-.307-.107 1.76 1.76 0 00-.428-.047v3.458zm7.078 13.546h1.759V32.53h2.467v12.112H15.67v-5.404h-1.76v5.404h-2.453V32.531h2.454v4.966zM18.11 18.75h2.454v12.112H18.11V18.75zm4.86 13.545c2.369 0 3.553 1.431 3.553 4.294v4.01c0 .485-.036.932-.108 1.342-.072.411-.195.8-.368 1.168a3.17 3.17 0 01-.66.939c-.268.258-.606.46-1.014.609a4.103 4.103 0 01-1.403.222c-.521 0-.986-.073-1.395-.22a2.854 2.854 0 01-1.011-.591 3.036 3.036 0 01-.657-.916A4.54 4.54 0 0119.535 42a7.535 7.535 0 01-.111-1.34v-4.07c0-2.863 1.182-4.294 3.545-4.294zm-1.091 8.916c0 1.19.364 1.784 1.091 1.784.733 0 1.099-.595 1.099-1.784v-5.235c0-1.193-.366-1.79-1.099-1.79a.932.932 0 00-.559.165.956.956 0 00-.337.45 2.87 2.87 0 00-.152.566 3.95 3.95 0 00-.043.609v5.235zm11.168-7.798c.481.587.722 1.437.722 2.55a5.7 5.7 0 01-.159 1.426 3.01 3.01 0 01-.441 1 2.113 2.113 0 01-.728.632c-.297.16-.618.271-.964.336s-.746.1-1.2.105v5.181H27.81V32.531h2.932c1.056 0 1.824.294 2.305.882zm-2.763.86v3.46a2.3 2.3 0 00.613-.078.478.478 0 00.203-.111c.058-.054.106-.101.144-.141a.492.492 0 00.098-.199 4.11 4.11 0 00.06-.226 1.77 1.77 0 00.03-.282c.008-.13.011-.234.011-.313v-.467c0-.176-.001-.308-.003-.398a5.282 5.282 0 00-.024-.343 1.14 1.14 0 00-.064-.313 1.743 1.743 0 00-.128-.238.518.518 0 00-.205-.196 1.574 1.574 0 00-.307-.107 1.76 1.76 0 00-.428-.047z" id="Shape" fill="#FFF"/></g></g></g></svg>
